X: 353
T: Xianyang hua
L: 1/8
M: 2/4
K: G
de2B [I:setbarnb 1]| 
d4 | 
dB2A | 
G4 | 
AA2B | 
d BA2 | 
E2B A | 
G4 | 
B AG2 | 
G2E2 | 
E G E G | 
d B A G | 
E G A B | 
A GE2 | 
D4 |]

@@@ Tune index: 9227
